X:50
T:The Lilting Banshee
M:6/8
L:1/8
R:jig
D:The Chieftans
K:Ador
EAA EAA|BAB G2A|Bee Bdd|BAB GED|
EAA EAA|BAB G2A|Bee edB|dBA A3:|
|:eaa age|dBA G2A|Bee edB|def gfg|
eaa age|dBA G2A|Bee edB|dBA A3:|
